X: 0
T: Venice
L: 1/4
M: 2/2
K: Eb
[V: P1]  B2 | (c B) (A G) | F2 (G A) | G2 E2 | E2 (F G) | A2 G2 | F2 F2 | B3 A | G2 B2 | e3 d | c2 F2 | B2 (A G) | F2 F2 | E2|]
[V: P2]  G2 | (A G) (F E) | E2 D2 | E2 E2 | E2 (D E) | F2 E2 | D2 D2 | F2 D2 | E2 (G F) | E2 E2 | E2 D2 | E2 E2 | E2 D2 | E2|]
[V: P3] |] Z 
[V: P4] |] Z 

